X: 32509
T: Planxty Burke
R: waltz
M: 3/4
K: Gminor
G(G/A/B/c/) d2c|Bcd cAF|FGF cAF|FGF fAF|
.G(G/A/B/c/) dBG|GAG dBG|f2f fga|~f3 d2||
agf gf=e|f=ed cde|f=ed gfe|f=ed cA^F|
.G(G/A/B/c/) dBG|GAG dBG|f2f fga|~f3 d2||
fg=e fge|f=ed cA^F|g2g gag|fd=e f2e|
(^f/g/a).f gd=e|f=ed cA^F|g2d (=e/f/g)d|B3 G2||

